X: 18840
T: Imperial Clog
R: hornpipe
M: 4/4
K: Dmajor
F2 F2 AdAF|G2 G2 BdBG|g2 ec g2 ec|d2 cd fecA|
FGFG AdAF|G2 G2 BdBG|g2 ec g2 ec|A2 Bc d2 d2||
Bcde fedc|BcBA B2 F2|Bcde fedc|BAGF B2 z2|
Bcde fedc|BcBA B2 F2|f2 (3efe d2 c2|BdcB AGFE||

